X: 022163
T: Banks of Lough Allen
C: Joe Liddy
Z: BB
S: "The Leitrim Fiddler" (Dublin 1981)
L: 1/8
M: 4/4
R: reel
Q: 1/4 = 170
K: G
ge | d2 BG AGED | BGAG EGDB, | DEGA BAGA | Beed e2 ge |
d2 BG AGED | BGAG EDB,C | DEGA BABd | egga g2 :|
ga | bgag egdg | egdB AGEG | DEGA BAGA | Beed e2 dg |
bgag egdg | egdB AGEG | DEGA BABd | egga g2 :|
